svgs/arrows/expand-01.svg

<svg fill="none" xmlns="http://www.w3.org/2000/svg" viewBox="0 0 24 24"><path d="m14 10 7-7m0 0h-6m6 0v6m-11 5-7 7m0 0h6m-6 0v-6" stroke="#1C1D20" stroke-width="1.5" stroke-linecap="round" stroke-linejoin="round"/></svg>

<svg width="24" height="24" viewBox="0 0 24 24" fill="none" xmlns="http://www.w3.org/2000/svg">
<path d="M14 10L21 3M21 3H15M21 3V9M10 14L3 21M3 21H9M3 21L3 15" stroke="#1C1D20" stroke-width="1.5" stroke-linecap="round" stroke-linejoin="round"/>
</svg>
